(
SynthDef(\bpfsaw, {
	arg atk=2, sus=0, rel=3, c1=1, c2=(-1),
	freq=500, cf=1500, rq=0.2, amp=1, out=0;
	var sig, env;
	env = EnvGen.kr(Env([0, 1, 1, 0], [atk, sus, rel], [c1, 0, c2]), doneAction: 2);
	sig = Saw.ar(freq);
	sig = BPF.ar(sig, cf, rq);
	sig = sig * env * amp;
	Out.ar(out, sig);
}).add;
)

Synth(\bpfsaw);
